!!!COM: Robert Schumann
!!!CNT: Deutsch
!!!TXO: Deutsch
!!!OTL: Du bist wie eine Blume
!!!LYR: Heine
!!!OPR: Myrten
!!!OPS: Op. 25
!!!ONM: No. 24
!!!ENC: Ben Fuhrman
!!!YOR: Schumann Lieder - Max Friedlaender, ed.,
!!!YOR: New York: C. F. Peters, Vol. 1
!!!ODT: 1840/
!!NB: Vocal melody and text only encoded.
!!NB: First instance of melodic material only encoded.
**kern	**silbe
*clefG2	*
*k[b-e-a-d-g-c-]	*
*M2/4	*
!!created: 5/15/06 10:08
!!proofed and posted: 5/15/06 10:08
!!edit time: 20 minutes
=1	=1
4r	.
8r	.
{8b-	{Du
=2	=2
[4a-	bist
16a-]	|
16a-	wie
(24b-	ei-
24a-)	|
24b-	-ne
=3	=3
8dd-	Blu-
8cc-}	me,}
8r	.
{8ee-	{so
=4	=4
8.f	hold
16f	und
(8g-	scho2n
qa-	|
qg-	|
16f)	|
16g-	und
=5	=5
4a-}	rein;}
4r	.
=6	=6
16r	.
{16b-	ich
16b-	schau'
16b-	dich
8.cc-	an,
16f	und
=7	=7
8dd-	Weh-
4.gn	-mut
=8	=8
8dd-	schleicht
16cn	mir
16dd-	ins
8.dd-	Herz
16ee-	hin-
=9	=9
4dd-}	-ein.}
8r	.
{8b-	{Mir
=10	=10
[4a-	ist,
16a-]	|
16a-	als
24b-	ob
24a-	ich
24b-	die
=11	=11
8dd-	Ha2n-
4cc-	-de
8ee-	aufs
=12	=12
8.f	Haupt
16f	dir
(8g-	le-
qa-	|
qg-	|
16f)	|
16g-	gen
=13	=13
4a-}	sollt',}
4r	.
=14	=14
{8b-	{be-
16b-	-tend,
16b-	dass
8ee-	Gott
16b-	dich
16b-	er-
=15	=15
8cc-	-hal-
8cc-}	-te}
4r	.
=16	=16
16r	.
{16b-	{so
16cc-	rein
16a-	und
8.dd-	scho2n
16f	und
=17	=17
4g-}	hold.}
4r	.
==	==
*-	*-
